dist/img/tiktok.svg

<svg width="14" height="16" viewBox="0 0 14 16" fill="none" xmlns="http://www.w3.org/2000/svg">
<path d="M7.35401 0.0135C8.22651 0 9.09401 0.008 9.96051 0C10.013 1.0205 10.38 2.06 11.127 2.7815C11.8725 3.521 12.927 3.8595 13.953 3.974V6.6585C12.9915 6.627 12.0255 6.427 11.153 6.013C10.773 5.841 10.419 5.6195 10.0725 5.393C10.068 7.341 10.0805 9.2865 10.06 11.2265C10.008 12.1585 9.70051 13.086 9.15851 13.854C8.28651 15.1325 6.77301 15.966 5.21851 15.992C4.26501 16.0465 3.31251 15.7865 2.50001 15.3075C1.15351 14.5135 0.206013 13.06 0.0680128 11.5C0.0506302 11.1696 0.0479609 10.8386 0.0600128 10.508C0.180013 9.2395 0.807513 8.026 1.78151 7.2005C2.88551 6.239 4.43201 5.781 5.88001 6.052C5.89351 7.0395 5.85401 8.026 5.85401 9.0135C5.19251 8.7995 4.41951 8.8595 3.84151 9.261C3.41863 9.53958 3.09906 9.94945 2.93201 10.4275C2.79401 10.7655 2.83351 11.141 2.84151 11.5C3.00001 12.594 4.05201 13.5135 5.17501 13.414C5.91951 13.406 6.63301 12.974 7.02101 12.3415C7.14651 12.12 7.28701 11.8935 7.29451 11.633C7.36001 10.4405 7.33401 9.253 7.34201 8.0605C7.34751 5.373 7.33401 2.693 7.35451 0.014L7.35401 0.0135Z" fill="#DDA288"/>
</svg>

<svg width="14" height="16" viewBox="0 0 14 16" xmlns="http://www.w3.org/2000/svg"><path d="M7.354.013C8.227 0 9.094.009 9.961 0c.052 1.02.419 2.06 1.166 2.781.745.74 1.8 1.079 2.826 1.193v2.684c-.961-.031-1.928-.231-2.8-.645a8.102 8.102 0 01-1.08-.62c-.005 1.948.008 3.894-.013 5.833a5.075 5.075 0 01-.901 2.628c-.872 1.279-2.386 2.112-3.94 2.138-.954.055-1.906-.206-2.719-.685C1.154 14.514.206 13.06.068 11.5a11.15 11.15 0 01-.008-.992 4.998 4.998 0 011.722-3.307c1.104-.962 2.65-1.42 4.098-1.149.014.988-.026 1.974-.026 2.962-.661-.214-1.434-.154-2.012.247a2.309 2.309 0 00-.91 1.167c-.138.337-.098.713-.09 1.072.158 1.094 1.21 2.014 2.333 1.914.745-.008 1.458-.44 1.846-1.072.126-.222.266-.449.274-.709.065-1.192.039-2.38.047-3.572.006-2.688-.008-5.368.013-8.047h-.001z"/></svg>
